X: 7
T: The Rainy Day
R: reel
M: 4/4
L: 1/8
K: Amaj
CFFE ~F3 G | AF ~F2 AGFA | GE ~E2 BE ~E2 | GBe^d cBGE |
CFFE ~F3 G | AF ~F2 ABc^d | eg ~g2 ecBG |1 ~E2 cB GFFE :|2 ~E2 cB GFGB|
|: ~c3 B cffe | cB^df e2 ec | ~B3 c e3 f | ~g3 f fecB |
cffe cffe | cB^df e2 ef | ecBG ~E3 B |1 BcBG GFGB :|2 BcBG GFGE |


Tune 1807	Setting 15245

